!!!!SEGMENT: pl-kk--kk-i-6--024-002_lilius-franciszek--missa-et-in-terra.krn
!!!cenid: 16xx:980
!!!COM: Lilius, Franciszek
!!!COM-rismid: pe30020509
!!!CDT: ~1600-1657
!!!CNT: Polish
!!!OPR: Missa
!!!OTL: Et in terra
!!!OMV: 002
!!!PDT:
!!!AGN: Sacred; Mass
!!!SMS-siglum: PL-Kk
!!!SMS-shelfmark: Kk.I.6
!!!SMS-shelfwork: 024-002 M
!!!SMS-variant:
!!!SMS-altvar:
!!!NIFC-rismid: 1001135889
!!!URL-scan: http://repozytorium.nifc.pl/skany/pl-kk-nut--i-6
!!!ONB-nifc: UWAGA: C (skan 0017-0022, s. 31-41), T (skan 0120-0126, s. 45-56), B (skan 0231-0237, s. 43-54) Części Mszy: 1 Kyrie, 2. Et in terra, 3. Patrem, 4. Sanctus, 5. Agnus Dei
**kern	**text	**kern	**text	**kern	**text
*part3	*part3	*part2	*part2	*part1	*part1
*staff3	*staff3	*staff2	*staff2	*staff1	*staff1
*group1	*	*group1	*	*group1	*
*Iempty	*	*Itenor	*	*Ivox	*
*I"Baſsus.	*	*I"Tenor.	*	*I"Cantus.	*
*I'B	*	*I'T	*	*I'S	*
*clefF4	*	*clefC4	*	*clefC4	*
*k[b-]	*	*k[b-]	*	*k[b-]	*
*F:	*	*F:	*	*F:	*
*M2/1	*	*M2/1	*	*M2/1	*
*met(C|)	*	*met(C|)	*	*met(C|)	*
*all\middle	*	*all\middle	*	*all\middle	*
=1-	=1-	=1-	=1-	=1-	=1-
!LO:TX:t=P:problem:przed kluczem inicjał E	!	!LO:TX:t=P:problem:przed kluczem inicjał E	!	!LO:TX:t=P:problem:przed kluczem inicjał E	!
1rD	.	1.G	ET	1r	.
1.GG	ET	.	.	1.B-	ET
.	.	2G/	in	.	.
=2-	=2-	=2-	=2-	=2-	=2-
.	.	1B-	ter-	.	.
2GG/	in	.	.	2G/	in
1D	ter-	2A/	-ra	2.F/	ter-
.	.	1d\	pax	.	.
.	.	.	.	4G/	.
=3-	=3-	=3-	=3-	=3-	=3-
1AA	-ra	.	.	2A/	.
!	!	!	!	!LO:TX:t=P:problem:kreska pseudotaktowa	!
*	*	*2\right	*	*	*
.	.	2c\	ho-	2A/	-ra
*	*	*lig	*	*	*
1BB-	pax	1B-	-mi-	1F	pax
=4-	=4-	=4-	=4-	=4-	=4-
!	!	!	!	!LO:TX:t=P:problem:kreska pseudotaktowa	!
1FF	ho-	1A	.	1F	ho-
*	*	*Xlig	*	*	*
1.GG	-mi-	1.G	.	1.D	-mi-
=5-	=5-	=5-	=5-	=5-	=5-
.	.	.	.	.	.
2GG/	-ni-	2G/	-ni-	2D/	-ni-
1D	-bus	1F	-bus	1D	-bus
=6-	=6-	=6-	=6-	=6-	=6-
1.G	Bo-	1.B-	Bo-	00r	.
!	!	!LO:SIC:v:t=custos c	!	!	!
*2\right	*	*	*	*	*
2G\	-nae	2B-\	-nae	.	.
!	!	!LO:LB:g=original	!	!	!
=7-	=7-	=7-	=7-	=7-	=7-
2A\	Vo-	2c\	Vo-	.	.
!LO:SIC:v:t=custos B	!	!	!	!	!
2A\	-lun-	2c\	-lun-	.	.
!LO:LB:g=original	!	!	!	!	!
2.B-\	-ta-	4f\	-ta-	.	.
.	.	4e\	.	.	.
.	.	4d\	.	.	.
4A\	.	4c\	.	.	.
=8-	=8-	=8-	=8-	=8-	=8-
1G	.	1B-	.	2rF	.
!	!	!	!	!LO:TX:t=P:problem:kreska pseudotaktowa	!
!	!	!	!	!LO:SIC:v:t=custos c	!
.	.	.	.	2G/	lau-
*	*	*	*	*2\right	*
!LO:TX:t=P:problem:oddech jako rozdzielacz słów:global	!	!	!	!LO:LB:g=original	!
2F,<\	-tis	2A/	-tis	2.c\	-da-
2C/	Lau-	2c\	Lau-	.	.
!	!	!	!	!LO:TX:t=P:problem:kreska pseudotaktowa	!
.	.	.	.	4B-\	.
=9-	=9-	=9-	=9-	=9-	=9-
2.F\	-da-	4c\	-da-	4A/	.
.	.	4B-\	.	4B-\	.
.	.	1A	.	1c	.
4E\	.	.	.	.	.
2D/	.	.	.	.	.
!	!	!	!	!LO:TX:t=P:problem:kreska pseudotaktowa	!
!	!	!	!	!LO:TX:b:t=P:problem:♯ below	!
!	!	!	!	!LO:N:acc=#	!
2D/	-mus	2F/	-mus	2Bn\	-mus
=10-	=10-	=10-	=10-	=10-	=10-
!	!	!LO:TX:t=P:problem:oddech jako rozdzielacz słów:global	!	!LO:TX:t=P:problem:oddech jako rozdzielacz słów:global	!
1C	te	1G,<	te	1c,<	te
!	!	!	!	!LO:TX:t=P:problem:kreska pseudotaktowa	!
1F	Be-	1A	Be-	1c	Be-
=11-	=11-	=11-	=11-	=11-	=11-
2BB-/	-ne-	2B-\	-ne-	2d\	-ne-
1C	-di-	2.G/	-di-	1c	-di-
.	.	4G/	-ci-	.	.
!	!	!	!	!LO:TX:t=P:problem:kreska pseudotaktowa	!
2E-X\	-ci-	1G/	-mus	2G/	-ci-
=12-	=12-	=12-	=12-	=12-	=12-
1D	-mus	.	.	1A	-mus
!	!	!LO:SIC:v:t=custos G	!	!	!
!	!	!LO:TX:b:t=P:problem:♯ below	!	!	!
!	!	!LO:N:acc=#	!	!	!
.	.	2F#X/	.	.	.
!LO:SIC:v:t=custos G	!	!LO:LB:g=original	!	!	!
0GG	te	1G	te	2B-y\	te
.	.	.	.	1d\	A-
!LO:LB:g=original	!	!	!	!	!
=13-	=13-	=13-	=13-	=13-	=13-
.	.	1.d	A-	.	.
!	!	!	!	!LO:TX:t=P:problem:kreska pseudotaktowa	!
.	.	.	.	2c\	-do-
1.G	A-	.	.	1.B-	-ra-
.	.	2c\	-do-	.	.
=14-	=14-	=14-	=14-	=14-	=14-
.	.	2B-\	-ra-	.	.
!	!	!	!	!LO:TX:t=P:problem:kreska pseudotaktowa	!
2G\	-do-	2d\	.	2A/	.
1E-X	-ra-	1.e-X	.	4G/	.
.	.	.	.	4A/	.
.	.	.	.	4B-\	.
!	!	!	!	!LO:TX:t=P:problem:kreska pseudotaktowa	!
!	!	!	!	!LO:SIC:v:t=custos A	!
.	.	.	.	4G/	.
!	!	!	!	!LO:LB:g=original	!
=15-	=15-	=15-	=15-	=15-	=15-
1.F	.	.	.	2A/	.
.	.	2d\	.	1B-	.
.	.	2.c\	.	.	.
!	!	!	!	!LO:TX:t=P:problem:kreska pseudotaktowa	!
2F\	-mus	.	.	2A/	-mus
.	.	4c\	-mus	.	.
=16-	=16-	=16-	=16-	=16-	=16-
2BB-/	te	1d	te	2B-,<\	te
2B-\	Glo-	.	.	2d\	Glo-
2G\	-ri-	2rc	.	2B-\	-ri-
!	!	!	!	!LO:TX:t=P:problem:kreska pseudotaktowa	!
2A\	-fi-	2f\	Glo-	2c\	-fi-
=17-	=17-	=17-	=17-	=17-	=17-
2B-\	-ca-	2d\	-ri-	2d\	-ca-
4A\	.	2eny\	-fi-	4c\	.
!	!	!	!	!LO:TX:t=P:problem:kreska pseudotaktowa	!
4G\	.	.	.	4B-\	.
2F\	.	2f\	-ca-	2A/	.
!	!	!	!	!LO:TX:t=P:problem:kreska pseudotaktowa	!
!	!	!	!	!LO:TX:b:t=P:problem:♯ below	!
!	!	!	!	!LO:N:acc=#	!
2G\	-mus	4e\	.	2Bn\	-mus
.	.	4d\	.	.	.
=18-	=18-	=18-	=18-	=18-	=18-
2C,</	te	2c\	-mus	2c,<\	te
!LO:SIC:v:t=custos AA	!	!LO:SIC:v:t=custos B	!	!	!
2C/	glo-	2c\	te	2e\	glo-
!LO:LB:g=original	!	!LO:LB:g=original	!	!	!
2AA/	-ri-	2r	.	2c\	-ri-
!	!	!	!	!LO:TX:t=P:problem:kreska pseudotaktowa	!
2BB-/	-fi-	2B-\	Glo-	2d\	-fi-
=19-	=19-	=19-	=19-	=19-	=19-
2C/	-ca-	2G/	-ri-	2e\	-ca-
4BB-/	.	2A/	-fi-	4d\	.
!	!	!	!	!LO:TX:t=P:problem:kreska pseudotaktowa	!
!	!	!	!	!LO:SIC:v:t=custos d	!
4AA/	.	.	.	4c\	.
!	!	!	!	!LO:LB:g=original	!
2GG/	.	2B-\	-ca-	2d\	.
!	!	!	!	!LO:TX:t=P:problem:kreska pseudotaktowa	!
2AA/	.	4A/	.	2c\	.
.	.	4G/	.	.	.
=20-	=20-	=20-	=20-	=20-	=20-
1BB-	.	1Fny	.	2.B-y\	.
.	.	.	.	4A/	.
2.C/	.	2.c\	.	2G/	.
!	!	!	!	!LO:TX:t=P:problem:kreska pseudotaktowa	!
.	.	.	.	2G/	-mus
4C/	-mus	4c\	-mus	.	.
=21-	=21-	=21-	=21-	=21-	=21-
1FF	te	1c	te	1A	te
2rGG	.	2r	.	2r	.
1BB-/	Gra-	1d\	Gra-	1B-\	Gra-
=22-	=22-	=22-	=22-	=22-	=22-
.	.	.	.	.	.
!	!	!	!	!LO:TX:t=P:problem:kreska pseudotaktowa	!
2BB-/	-ti-	2d\	-ti-	2B-\	-ti-
1BB-	-as	1d	-as	1B-	-as
=23-	=23-	=23-	=23-	=23-	=23-
1.GG	a-	1.B-	a-	1.d	a-
!	!	!	!	!LO:TX:t=P:problem:kreska pseudotaktowa	!
2GG/	-gi-	2B-\	-gi-	2d\	-gi-
=24-	=24-	=24-	=24-	=24-	=24-
!LO:SIC:v:t=custos E	!	!LO:SIC:v:t=custos G	!	!	!
1D	-mus	1A	-mus	2d\	-mus
.	.	.	.	1d	ti-
!LO:LB:g=original	!	!LO:LB:g=original	!	!	!
0E-X	ti-	0G	ti-	.	.
.	.	.	.	4c\	.
!	!	!	!	!LO:TX:t=P:problem:kreska pseudotaktowa	!
.	.	.	.	4B-\	.
=25-	=25-	=25-	=25-	=25-	=25-
.	.	.	.	1c	.
!	!	!	!	!LO:SIC:v:t=custos d	!
1D	-bi	1A	-bi	1d	-bi
!	!	!	!	!LO:LB:g=original	!
=26-	=26-	=26-	=26-	=26-	=26-
!	!	!LO:TX:b:t=P:problem:♯ below	!	!	!
!	!	!LO:N:acc=#	!	!	!
2.G\	pro-	2.Bn\	pro-	2.d\	pro-
!	!	!LO:TX:b:t=P:problem:♯ below	!	!	!
!	!	!LO:N:acc=#	!	!LO:TX:t=P:problem:kreska pseudotaktowa	!
4G\	-pter	4Bn\	-pter	4d\	-pter
2G\	ma-	2B\	ma-	2d\	ma-
!	!	!	!	!LO:TX:t=P:problem:kreska pseudotaktowa	!
2C/	-gn(am)	2c\	-gn(am)	2e\	-gnam
=27-	=27-	=27-	=27-	=27-	=27-
1.F	glo-	1.c	glo-	1.f	glo-
!	!	!	!	!LO:TX:t=P:problem:kreska pseudotaktowa	!
2F\	-ri-	2c\	-ri-	2f\	-ri-
=28-	=28-	=28-	=28-	=28-	=28-
1BB-	-am	2.B-y\	-am	1d	-am
.	.	4A/	.	.	.
1C	tu-	2G/	.	1.c	tu-
.	.	2A/	.	.	.
=29-	=29-	=29-	=29-	=29-	=29-
!	!	!LO:TX:t=P:problem:♯ above	!	!	!
0D	.	2F#X/	tu-	.	.
!	!	!	!	!LO:TX:t=P:problem:kreska pseudotaktowa	!
.	.	1G	.	2B-\	.
.	.	.	.	1A	.
!	!	!LO:TX:t=P:problem:♯ above	!	!	!
.	.	2F#X/	.	.	.
=30-	=30-	=30-	=30-	=30-	=30-
!	!	!LO:SIC:v:t=custos d	!	!	!
2GG,</	-am	1G	-am	2B-,<\	-am
2.G\	Do-	.	.	2.B-\	Do-
!	!	!LO:PB:g=original	!	!	!
.	.	2r	.	.	.
4G\	-mi-	.	.	4B-\	-mi-
!LO:TX:b:t=P:problem:♯ below	!	!	!	!	!
!LO:SIC:v:t=custos G	!	!	!	!LO:TX:t=P:problem:kreska pseudotaktowa	!
2F#X\	-ne	2.d\	Do-	2A/	-ne
!LO:LB:g=original	!	!	!	!	!
=31-	=31-	=31-	=31-	=31-	=31-
!	!	!	!	!LO:TX:b:t=P:problem:♯ below	!
!	!	!	!	!LO:N:acc=#	!
2G\	De-	.	.	2Bn\	De-
.	.	4d\	-mi-	.	.
!	!	!	!	!LO:TX:t=P:problem:kreska pseudotaktowa	!
!	!	!	!	!LO:SIC:v:t=custos B	!
2A\	-us	2c\	-ne	2c\	-us
!	!	!	!	!LO:TX:b:t=P:problem:♯ below	!
!	!	!	!	!LO:N:acc=#	!
!	!	!	!	!LO:LB:g=original	!
2G\	Rex	2d\	De-	2B\	Rex
!	!	!	!	!LO:TX:t=P:problem:kreska pseudotaktowa	!
2C/	Cae-	2e-X\	-us	2c\	Cae-
=32-	=32-	=32-	=32-	=32-	=32-
!	!	!LO:TX:b:t=P:problem:♯ below	!	!	!
!	!	!LO:N:acc=#	!	!	!
0GG	-le-	4Bn\	Rex	2d\	-le-
!	!	!LO:TX:b:t=P:problem:♯ below	!	!	!
!	!	!LO:N:acc=#	!	!	!
.	.	4Bn\	Cae-	.	.
!	!	!	!	!LO:TX:t=P:problem:kreska pseudotaktowa	!
.	.	1c	-le-	2e-X\	.
.	.	.	.	1d	.
!	!	!LO:TX:b:t=P:problem:♯ below	!	!	!
!	!	!LO:N:acc=#	!	!	!
.	.	2Bn\	.	.	.
=33-	=33-	=33-	=33-	=33-	=33-
1C	-ſtis	2c\	-ſtis	1c	-ſtis
.	.	1c	De-	.	.
1.Fny	De-	.	.	2r	.
!	!	!	!	!LO:TX:t=P:problem:kreska pseudotaktowa	!
.	.	2A/	-us	2c\	De-
=34-	=34-	=34-	=34-	=34-	=34-
.	.	2d\	Pa-	2A/	-us
2D/	-us	4d\	-ter	2.d\	Pa-
.	.	4c\	.	.	.
1G	Pa-	2.B-y\	O-	.	.
.	.	.	.	4d\	-ter
!	!	!	!	!LO:TX:t=P:problem:kreska pseudotaktowa	!
.	.	.	.	2d\	O-
!	!	!LO:SIC:v:t=custos G	!	!	!
.	.	4A/	-mni-	.	.
!	!	!LO:LB:g=original	!	!	!
=35-	=35-	=35-	=35-	=35-	=35-
2G\	-ter	2G/	.	2B-y\	-mni-
!	!	!	!	!LO:TX:t=P:problem:kreska pseudotaktowa	!
2F\	O-	1d	.	2A/	.
2.E-X\	-mni-	.	.	2.G/	.
.	.	2c\	-po-	.	.
!	!	!	!	!LO:SIC:v:t=custos A	!
4E-\	-po-	.	.	4G/	-po-
!	!	!	!	!LO:PB:g=original	!
=36-	=36-	=36-	=36-	=36-	=36-
0D	-tens	2d,<\	-tens	2A,</	-tens
.	.	2.D/	Do-	2.A/	Do-
.	.	4D/	-mi-	4A/	-mi-
!	!	!	!	!LO:TX:t=P:problem:kreska pseudotaktowa	!
.	.	2D/	-ne	2A/	-ne
=37-	=37-	=37-	=37-	=37-	=37-
00r	.	1G	fi-	1B-	fi-
.	.	1D	-li	2A/	-li
.	.	.	.	1d\	V-
=38-	=38-	=38-	=38-	=38-	=38-
.	.	0rA	.	.	.
!	!	!	!	!LO:TX:t=P:problem:kreska pseudotaktowa	!
.	.	.	.	2c\	-ni-
.	.	.	.	1B-	-ge-
=39-	=39-	=39-	=39-	=39-	=39-
!LO:SIC:v:t=custos G	!	!	!	!	!
0r	.	1rA	.	2.A/	.
.	.	.	.	4A/	-ni-
!	!	!	!	!LO:TX:t=P:problem:kreska pseudotaktowa	!
.	.	2rF	.	1G	-te
.	.	2.d\	Je-	.	.
!LO:PB:g=original	!	!	!	!	!
=40-	=40-	=40-	=40-	=40-	=40-
2.G\	Je-	.	.	1.B-	Je-
.	.	4c\	.	.	.
.	.	4B-\	.	.	.
4F\	.	4A/	.	.	.
4E-X\	.	1.G	.	.	.
4D/	.	.	.	.	.
1C/	.	.	.	1c\	-ſu
=41-	=41-	=41-	=41-	=41-	=41-
.	.	.	.	.	.
!LO:TX:t=P:b:problem:♯ below	!	!	!	!	!
!LO:N:acc=#	!	!	!	!	!
2BBn/	.	2G/	-ſu	2.d\	Chri-
!	!	!LO:SIC:v:t=custos E	!	!	!
1C	-ſu	0.G	Chri-	.	.
.	.	.	.	4c\	.
.	.	.	.	1c\	.
=42-	=42-	=42-	=42-	=42-	=42-
0GG	Chri-	.	.	.	.
!	!	!	!	!LO:TX:b:t=P:problem:♯ below	!
!	!	!	!	!LO:N:acc=#	!
.	.	.	.	4Bn\	.
!	!	!	!	!LO:TX:t=P:problem:kreska pseudotaktowa	!
!	!	!	!	!LO:SIC:v:t=custos B	!
.	.	.	.	4A/	.
!	!	!	!	!LO:TX:t=P:problem:kreska pseudotaktowa	!
!	!	!	!	!LO:TX:b:t=P:problem:♯ below	!
!	!	!	!	!LO:N:acc=#	!
.	.	.	.	1Bn	.
!	!	!LO:LB:g=original	!	!LO:LB:g=original	!
=43-	=43-	=43-	=43-	=43-	=43-
2C/	-ſte	2E/	-ſte	2c,<\	-ſte
2.C/	Do-	2.G/	Do-	2.c\	Do-
4C/	-mi-	4G/	-mi-	4c\	-mi-
!	!	!	!	!LO:TX:t=P:problem:kreska pseudotaktowa	!
2F\	-ne	2A/	-ne	2c\	-ne
=44-	=44-	=44-	=44-	=44-	=44-
2BB-y/	De-	2B-\	De-	2d\	De-
2AA/	us	2c\	-us	2c\	-us
2BB-/	A-	2d\	A-	2B-y\	A-
!LO:SIC:v:t=custos GG	!	!	!	!LO:TX:t=P:problem:kreska pseudotaktowa	!
2FF/	-gnus	2c\	-gnus	2A/	-gnus
!LO:LB:g=original	!	!	!	!	!
=45-	=45-	=45-	=45-	=45-	=45-
2.GG/	De-	1.B-	De-	1.G	De-
4AA/	.	.	.	.	.
4BB-/	.	.	.	.	.
4C/	.	.	.	.	.
!	!	!	!	!LO:TX:t=P:problem:kreska pseudotaktowa	!
2D/	.	2A/	.	2F/	.
=46-	=46-	=46-	=46-	=46-	=46-
1GG	-i	0G	-i	1G	-i
2.C/	fi-	.	.	1.E	fi-
4BB-/	-li-	.	.	.	.
=47-	=47-	=47-	=47-	=47-	=47-
1AA	-us	2r	.	.	.
!	!	!	!	!LO:TX:t=P:problem:kreska pseudotaktowa	!
!	!	!	!	!LO:TX:b:t=P:problem:♯ below	!
!	!	!	!	!LO:N:acc=#	!
.	.	2.c\	fi-	2F#X/	-li-
1GG	Pa-	.	.	2G/	-us
.	.	4c\	-li-	.	.
.	.	2B-\	-us	2d\	Pa-
=48-	=48-	=48-	=48-	=48-	=48-
0AA	.	0A	Pa-	2c\	.
.	.	.	.	1d	.
!	!	!	!	!LO:TX:t=P:problem:kreska pseudotaktowa	!
!	!	!	!	!LO:TX:b:t=P:problem:♯ below	!
.	.	.	.	2c#X\	.
=49-	=49-	=49-	=49-	=49-	=49-
!	!	!LO:SIC:v:s=0A	!	!	!
0Dl;;	-tris.	0Gl;;	-tris.	0dl;;	-tris.
!LO:LB:g=original	!	!LO:LB:g=original	!	!LO:LB:g=original	!
=50||-	=50||-	=50||-	=50||-	=50||-	=50||-
*M2/1	*	*M2/1	*	*M2/1	*
*met(C|)	*	*met(C|)	*	*met(C|)	*
!LO:TX:t=P:problem:przed kluczem inicjał Q	!	!LO:TX:t=P:problem:przed kluczem inicjał Q	!	!LO:TX:t=P:problem:przed kluczem inicjał Q	!
!LO:TX:t=P:problem:partia S zapisana pomocniczo	!	!	!	!	!
!LO:TX:a:t=2	!	!	!	!	!
0r	.	0r	.	1G	Qui
.	.	.	.	1d	tol-
=51-	=51-	=51-	=51-	=51-	=51-
1D	Qui	1r	.	2d\	-lis
!	!	!	!	!LO:TX:t=P:problem:kreska pseudotaktowa	!
.	.	.	.	2A/	pec-
1G	tol-	2r	.	1.B-	-ca-
.	.	2G/	Qui	.	.
=52-	=52-	=52-	=52-	=52-	=52-
2G\	-lis	1d	tol-	.	.
!	!	!	!	!LO:TX:t=P:problem:kreska pseudotaktowa	!
2D/	pec-	.	.	2B-\	-ta
2F\	-ca-	2d\	-lis	1A	mun-
2F\	-ta	2A/	pec-	.	.
=53-	=53-	=53-	=53-	=53-	=53-
2.Eny\	mun-	2c\	-ca-	0G	-di
.	.	2c\	-ta	.	.
4F\	.	.	.	.	.
1G	.	1B-	mun-	.	.
=54-	=54-	=54-	=54-	=54-	=54-
1D	-di	2A\	.	2rF	.
!	!	!	!	!LO:TX:t=P:problem:kreska pseudotaktowa	!
.	.	1d	.	2D/	Qui
2rBB	.	.	.	1A	tol-
!	!	!LO:TX:b:t=P:problem:♯ below	!	!	!
2AA/	Qui	2c#X\	.	.	.
=55-	=55-	=55-	=55-	=55-	=55-
1D	tol-	1d	-di	2A/	-lis
!	!	!	!	!LO:TX:t=P:problem:kreska pseudotaktowa	!
.	.	.	.	2D/	pec-
2D/	-lis	2D/	Qui	2Fny/	-ca-
!LO:SIC:v:t=custos C	!	!	!	!	!
2AA/	pec-	2.A/	tol-	2F/	-ta
!LO:LB:g=original	!	!	!	!	!
=56-	=56-	=56-	=56-	=56-	=56-
!	!	!	!	!LO:TX:t=P:problem:kreska pseudotaktowa	!
2C/	-ca-	.	.	1E	mun-
.	.	4A/	-lis	.	.
!	!	!LO:SIC:v:t=custos G	!	!	!
2C/	-ta	2E/	pec-	.	.
!	!	!LO:LB:g=original	!	!LO:SIC:v:t=custos D	!
2.BB-/	mun-	2G/	-ca-	2D/	-di
!	!	!	!	!LO:LB:g=original	!
.	.	2G/	-ta	2.D/	pec-
4C/	.	.	.	.	.
=57-	=57-	=57-	=57-	=57-	=57-
*	*	*lig	*	*	*
1D	.	1Fny	mun-	.	.
.	.	.	.	4E/	.
.	.	.	.	4F/	.
!	!	!	!	!LO:TX:t=P:problem:kreska pseudotaktowa	!
.	.	.	.	4G/	.
1AA	.	1E	.	2A/	.
.	.	.	.	2.A/	-ca-
*	*	*Xlig	*	*	*
=58-	=58-	=58-	=58-	=58-	=58-
2.BB-/	.	1D	-di	.	.
.	.	.	.	4A/	-ta
!	!	!	!	!LO:TX:t=P:problem:# błędnie pod 1G	!
.	.	.	.	1G	mun-
4C/	.	.	.	.	.
1D	.	2r	.	.	.
!	!	!	!	!LO:TX:t=P:problem:kreska pseudotaktowa	!
!	!	!	!	!LO:TX:b:t=P:problem:♯ below	!
.	.	1d\	Mi-	2F#X/	.
=59-	=59-	=59-	=59-	=59-	=59-
2GG/	-di	.	.	1G	-di
1G	mi-	2d\	-ſe-	.	.
.	.	1B-	-re-	2r	.
2G\	-se-	.	.	1d\	Mi-
=60-	=60-	=60-	=60-	=60-	=60-
!LO:TX:b:t=P:problem:♯ below	!	!	!	!	!
1F#X	-re-	1A	-re	.	.
.	.	.	.	2d\	-ſe-
1G	-re	1.G	no-	1.B-	-re-
=61-	=61-	=61-	=61-	=61-	=61-
1.E-X	no-	.	.	.	.
!	!	!	!	!LO:TX:t=P:problem:kreska pseudotaktowa	!
.	.	2A/	.	2A/	-re
*	*	*lig	*	*	*
.	.	1B-	.	4G/	no-
.	.	.	.	4A/	.
2D/	.	.	.	1B-\	.
=62-	=62-	=62-	=62-	=62-	=62-
1C	.	1cny	.	.	.
!	!	!	!	!LO:TX:t=P:problem:kreska pseudotaktowa	!
.	.	.	.	2A/	.
*	*	*Xlig	*	*	*
!LO:SIC:v:t=custos GG	!	!	!	!	!
1BB-	-bis	2F,</	-bis	2B-,<\	-bis
!	!	!	!	!LO:SIC:v:t=custos B	!
.	.	2D/	Qui	2Fny/	Qui
!LO:LB:g=original	!	!	!	!LO:LB:g=original	!
=63-	=63-	=63-	=63-	=63-	=63-
2rBB	.	1G	tol-	1B-	tol-
2GG/	Qui	.	.	.	.
1D	tol-	2F/	-lis	2A/	-lis
!	!	!LO:SIC:v:t=custos F	!	!LO:TX:t=P:problem:kreska pseudotaktowa	!
.	.	2D/	pec-	2F/	pec-
!	!	!LO:LB:g=original	!	!	!
=64-	=64-	=64-	=64-	=64-	=64-
2D/	-lis	2F/	-ca-	2A/	-ca-
2AA/	pec-	2F/	-ta	2A/	-ta
2C/	-ca-	1E	mun-	2G/	mun-
!	!	!	!	!LO:TX:t=P:problem:kreska pseudotaktowa:między nutą a kropką	!
2C/	-ta	.	.	2.A/	.
=65-	=65-	=65-	=65-	=65-	=65-
*lig	*	*	*	*	*
1BB-	mun-	2F/	.	.	.
.	.	.	.	4G/	.
.	.	2G/	.	1G	.
1AA	.	1A	.	.	.
!	!	!	!	!LO:TX:t=P:problem:kreska pseudotaktowa	!
!	!	!	!	!LO:TX:b:t=P:problem:♯ below	!
.	.	.	.	2F#X/	.
*Xlig	*	*	*	*	*
=66-	=66-	=66-	=66-	=66-	=66-
1GG	-di	2D/	-di	1G	-di
.	.	2.d\	Sus-	.	.
2r	.	.	.	2r	.
.	.	4d\	-ci-	.	.
!	!	!	!	!LO:TX:b:t=P:problem:♯ below	!
!	!	!	!	!LO:N:acc=#	!
2.G\	Sus-	2d\	-pe	2.Bn\	Sus-
=67-	=67-	=67-	=67-	=67-	=67-
.	.	1.G	de-	.	.
4G\	-ci-	.	.	4B\	-ci-
!	!	!	!	!LO:TX:t=P:problem:kreska pseudotaktowa	!
!	!	!	!	!LO:TX:b:t=P:problem:♯ below	!
!	!	!	!	!LO:N:acc=#	!
2G\	-pe	.	.	2Bn\	-pe
1.C	de-	.	.	1cny	de-
.	.	2G/	-pre-	.	.
=68-	=68-	=68-	=68-	=68-	=68-
!	!	!	!	!LO:TX:t=P:problem:kreska pseudotaktowa	!
.	.	1.c	-ca-	1G	-pre-
2C/	-pre-	.	.	.	.
1Fny	-ca-	.	.	4A/	-ca-
.	.	.	.	4B-y\	.
.	.	2A/	-ti-	4c\	.
!	!	!	!	!LO:SIC:v:t=custos d	!
.	.	.	.	4A/	.
!	!	!	!	!LO:LB:g=original	!
=69-	=69-	=69-	=69-	=69-	=69-
1D	-ti-	2.B-\	-o-	1d	.
.	.	4A/	.	.	.
2E-X\	-o-	4G/	-nem	2B-\	-ti-
.	.	4A/	.	.	.
!LO:SIC:v:t=custos F	!	!	!	!	!
2E-\	-nem	4B-\	No-	1e-X\	-o-
!	!	!LO:SIC:v:t=custos A	!	!	!
.	.	4G/	.	.	.
!LO:LB:g=original	!	!LO:PB:g=original	!	!	!
=70-	=70-	=70-	=70-	=70-	=70-
0.F	no-	2A/	.	.	.
!	!	!	!	!LO:TX:t=P:problem:kreska pseudotaktowa	!
.	.	1B-	.	2d\	-nem
.	.	.	.	0c	no-
.	.	4A/	.	.	.
.	.	4G/	.	.	.
=71-	=71-	=71-	=71-	=71-	=71-
.	.	1A	.	.	.
2BB-,</	-ſtram	1B-	-ſtram	1d	-ſtram
2B-\	Qui	.	.	.	.
=72-	=72-	=72-	=72-	=72-	=72-
1G	se-	1r	.	00rc	.
2F\	-des	2rc	.	.	.
2F\	ad	2f\	Qui	.	.
=73-	=73-	=73-	=73-	=73-	=73-
4BB-/	dex-	1d	se-	.	.
4C/	.	.	.	.	.
4D/	.	.	.	.	.
4Eny\	.	.	.	.	.
2.F\	.	2c\	-des	.	.
.	.	2f\	ad	.	.
4F\	-te-	.	.	.	.
=74-	=74-	=74-	=74-	=74-	=74-
2G\	-ram	4B-\	dex-	2r	.
.	.	4c\	.	.	.
2G\	Pa-	4d\	.	1B-	Mi-
.	.	4eny\	.	.	.
!LO:SIC:v:t=custos BB	!	!	!	!	!
1F	-tris	2.f\	.	.	.
!	!	!	!	!LO:TX:t=P:problem:kreska pseudotaktowa	!
.	.	.	.	2A/	-ſe-
.	.	4f\	-te-	.	.
!LO:PB:g=original	!	!	!	!	!
=75-	=75-	=75-	=75-	=75-	=75-
2r	.	2d\	-ram	1B-	-re-
1BB-	Mi-	2B-\	Pa-	.	.
!	!	!LO:SIC:v:t=custos B	!	!	!
.	.	1F	-tris	1c	-re
2AA/	-se-	.	.	.	.
!	!	!LO:LB:g=original	!	!	!
=76-	=76-	=76-	=76-	=76-	=76-
!	!	!	!	!LO:TX:t=P:problem:kreska pseudotaktowa	!
1BB-	-re-	2.B-\	Mi-	1d	No-
.	.	4B-\	-ſe-	.	.
1C	-re	2G/	-re-	1.c	.
.	.	2G/	-re	.	.
=77-	=77-	=77-	=77-	=77-	=77-
0D	no-	0F	no-	.	.
.	.	.	.	4B-\	.
!	!	!	!	!LO:TX:t=P:problem:kreska pseudotaktowa	!
.	.	.	.	4A/	.
!	!	!	!	!LO:TX:b:t=P:problem:♯ below	!
!	!	!	!	!LO:N:acc=#	!
.	.	.	.	1Bn	.
=78-	=78-	=78-	=78-	=78-	=78-
!	!	!	!	!LO:SIC:v:t=custos A	!
1C	-bis	1G	-bis	1c	-bis
!	!	!	!	!LO:PB:g=original	!
2.F\	Quo-	00r	.	2.A/	Quo-
!	!	!	!	!LO:TX:t=P:problem:kreska pseudotaktowa	!
4F\	-ni-	.	.	4A/	-ni-
=79-	=79-	=79-	=79-	=79-	=79-
2F\	-am	.	.	2A/	-am
!	!	!	!	!LO:TX:t=P:problem:kreska pseudotaktowa	!
2D/	tu	.	.	2d\	Tu
4E\	So-	.	.	2c\	so-
4F\	-lus	.	.	.	.
1G\	San-	.	.	2B-y\	-lus
=80-	=80-	=80-	=80-	=80-	=80-
.	.	.	.	1A	San-
!LO:TX:b:t=P:problem:♯ below	!	!	!	!	!
2F#X\	.	.	.	.	.
1G	-ctus	2.B-\	Quo-	1G	-ctus
.	.	4B-\	-ni-	.	.
=81-	=81-	=81-	=81-	=81-	=81-
0r	.	2B-\	-am	0r	.
.	.	2G/	tu	.	.
.	.	4A/	so-	.	.
.	.	4B-\	.	.	.
.	.	1c\	-lus	.	.
=82-	=82-	=82-	=82-	=82-	=82-
2r	.	.	.	1r	.
!	!	!LO:TX:b:t=P:problem:♯ below	!	!	!
!LO:SIC:v:t=custos E	!	!LO:N:acc=#	!	!	!
2G\	Tu	2Bn\	San-	.	.
!LO:LB:g=original	!	!	!	!	!
2E\	So-	1c	-ctus	2r	.
!	!	!	!	!LO:TX:t=P:problem:kreska pseudotaktowa	!
2C/	-lus	.	.	2c\	Tu
=83-	=83-	=83-	=83-	=83-	=83-
4D/	Do-	1r	.	2A/	so-
4E\	.	.	.	.	.
!	!	!	!	!LO:TX:t=P:problem:kreska pseudotaktowa	!
1Fny	.	.	.	2A/	-lus
.	.	2r	.	2.G/	Do-
!	!	!LO:SIC:v:t=custos A	!	!	!
2E\	-mi-	2c\	Tu	.	.
.	.	.	.	4G/	-mi-
!	!	!LO:LB:g=original	!	!	!
=84-	=84-	=84-	=84-	=84-	=84-
1F	-nus	2A/	So-	1Fny	-nus
.	.	4F/	-lus	.	.
.	.	4F/	al-	.	.
00r	.	2B-y\	-tiſ-	00r	.
.	.	2A/	.	.	.
=85-	=85-	=85-	=85-	=85-	=85-
.	.	2.B-\	.	.	.
.	.	4A/	.	.	.
.	.	2G/	.	.	.
.	.	2G/	-si-	.	.
=86-	=86-	=86-	=86-	=86-	=86-
.	.	1F	-mus	.	.
!	!	!	!	!LO:SIC:v:t=custos F	!
0BB-	Je-	0B-	Je-	2rF	.
!	!	!	!	!LO:LB:g=original	!
.	.	.	.	1F/	Je-
=87-	=87-	=87-	=87-	=87-	=87-
.	.	.	.	.	.
.	.	.	.	1D	-su
1GG	-su	1B-	-ſu	.	.
!	!	!	!	!LO:TX:t=P:problem:kreska pseudotaktowa	!
.	.	.	.	1G/	Chri-
=88-	=88-	=88-	=88-	=88-	=88-
1.D	Chri-	1.A	Chri-	.	.
.	.	.	.	2.F/	.
.	.	.	.	4G/	.
2C/	.	2E/	.	2.A/	.
=89-	=89-	=89-	=89-	=89-	=89-
1BB-	.	2F/	.	.	.
!	!	!	!	!LO:TX:t=P:problem:kreska pseudotaktowa	!
.	.	.	.	4G/	.
.	.	2G/	.	1G	.
0AA	.	0A	.	.	.
.	.	.	.	4F/	.
!	!	!	!	!LO:TX:t=P:problem:kreska pseudotaktowa	!
.	.	.	.	4E/	.
=90-	=90-	=90-	=90-	=90-	=90-
!	!	!	!	!LO:TX:t=P:problem:♯ above	!
.	.	.	.	1F#X	.
!	!	!LO:SIC:v:t=custos e	!	!	!
2GG,</	-ſte	1d	-ſte	2G,</	-ſte
!	!	!	!	!LO:TX:t=P:problem:kreska pseudotaktowa	!
2G\	cum	.	.	2B-\	cum
!	!	!LO:LB:g=original	!	!	!
=91-	=91-	=91-	=91-	=91-	=91-
!LO:TX:b:t=P:problem:♯ below	!	!	!	!	!
2F#X\	San-	0r	.	2A/	San-
!LO:SIC:v:t=custos C	!	!	!	!LO:TX:t=P:problem:kreska pseudotaktowa	!
2G\	-cto	.	.	2B-\	-cto
!LO:LB:g=original	!	!	!	!	!
2.C/	Spi-	.	.	2.c\	Spi-
!	!	!	!	!LO:TX:t=P:problem:kreska pseudotaktowa	!
4C/	-ri-	.	.	4c\	-ri-
=92-	=92-	=92-	=92-	=92-	=92-
1C	-tu	2r	.	2c\	-tu
!	!	!	!	!LO:SIC:v:t=custos B	!
.	.	2e\	cum	2c\	cum
!	!	!	!	!LO:TX:b:t=P:problem:♯ below	!
!	!	!	!	!LO:N:acc=#	!
!	!	!	!	!LO:LB:g=original	!
0rD	.	2d\	San-	2Bn\	San-
!	!	!	!	!LO:TX:t=P:problem:kreska pseudotaktowa	!
.	.	2e\	-cto	2c\	-cto
=93-	=93-	=93-	=93-	=93-	=93-
.	.	2.f\	Spi-	2.Fny/	Spi-
!	!	!	!	!LO:TX:t=P:problem:kreska pseudotaktowa	!
.	.	4f\	-ri-	4F/	-ri-
2rBB	.	2e,<\	-tu	2c\	-tu
!	!	!	!	!LO:TX:t=P:problem:kreska pseudotaktowa	!
*	*	*	*	*	*ij
2C/	Cum	2c\	Cum	2F/	cum
=94-	=94-	=94-	=94-	=94-	=94-
!LO:N:acc=#	!	!	!	!	!
!LO:TX:b:t=P:problem:♯ below	!	!	!	!	!
2BBn/	San-	2d\	San-	2G/	San-
2C/	-cto	2c\	-cto	2G/	-cto
2.FF/	Spi-	2.c\	Spi-	2.A/	Spi-
4FF/	-ri-	4c\	-ri-	4A/	-ri-
=95-	=95-	=95-	=95-	=95-	=95-
1C	-tu	2c\	-tu	0G	-tu
*	*	*	*	*	*Xij
.	.	2c\	in	.	.
2r	.	2B-\	glo-	.	.
2G\	in	4B-\	-ri-	.	.
!	!	!LO:SIC:v:t=custos A	!	!	!
.	.	4B-\	-a	.	.
!	!	!LO:LB:g=original	!	!	!
=96-	=96-	=96-	=96-	=96-	=96-
2Fny\	glo-	2A/	De-	0r	.
4F\	-ri-	2F/	-i	.	.
4F\	-a	.	.	.	.
2E\	De-	2.G/	Pa-	.	.
2C/	-i	.	.	.	.
.	.	4A/	.	.	.
=97-	=97-	=97-	=97-	=97-	=97-
4D/	Pa-	4B-\	.	2r	.
4E\	.	8A/L	.	.	.
.	.	8G/J	.	.	.
!	!	!	!	!LO:TX:t=P:problem:kreska pseudotaktowa	!
4F\	.	2A/	.	2d\	in
!LO:SIC:v:t=custos A	!	!	!	!	!
4G\	.	.	.	.	.
!LO:LB:g=original	!	!LO:SIC:v:s=1A	!	!	!
1A	.	1B-	-tris	2c\	glo-
.	.	.	.	4c\	-ri-
!	!	!	!	!LO:TX:t=P:problem:kreska pseudotaktowa	!
.	.	.	.	4c\	-a
=98-	=98-	=98-	=98-	=98-	=98-
1G	-tris	2r	.	2B-y\	De-
!	!	!	!	!LO:SIC:v:t=custos A	!
.	.	2G/	in	2G/	-i
!	!	!	!	!LO:LB:g=original	!
2r	.	2F/	glo-	2.A/	Pa-
2D/	in	4F/	-ri-	.	.
!	!	!	!	!LO:TX:t=P:problem:kreska pseudotaktowa	!
.	.	4F/	-a	4B-\	.
=99-	=99-	=99-	=99-	=99-	=99-
2C/	glo-	2E/	De-	4c\	.
.	.	.	.	4d\	.
!	!	!	!	!LO:TX:t=P:problem:kreska pseudotaktowa	!
4C/	-ri-	2C/	-i	2eny\	.
4C/	-a	.	.	.	.
2BB-y/	De-	1D	Pa-	2d\	-tris
2GG/	-i	.	.	4r	.
!	!	!	!	!LO:TX:t=P:problem:kreska pseudotaktowa	!
.	.	.	.	4d\	in
=100-	=100-	=100-	=100-	=100-	=100-
1AA	Pa-	1A	-tris	2c\	glo-
.	.	.	.	4c\	-ri-
!	!	!	!	!LO:TX:t=P:problem:kreska pseudotaktowa	!
.	.	.	.	4c\	-a
4GG/	.	4B-\	De-	2B-\	De-
4AA/	.	4c\	.	.	.
!	!	!	!	!LO:TX:t=P:problem:kreska pseudotaktowa	!
4BB-/	.	1d\	-i	2G/	-i
4GG/	.	.	.	.	.
=101-	=101-	=101-	=101-	=101-	=101-
2D/	.	.	.	2A/	Pa-
!	!	!LO:SIC:v:t=custos c	!	!LO:TX:t=P:problem:kreska pseudotaktowa	!
2BB-/	-tris	2d\	.	2B-\	.
!	!	!LO:LB:g=original	!	!	!
1C	A-	1.c	Pa-	2G/	.
!	!	!	!	!LO:TX:t=P:problem:kreska pseudotaktowa	!
.	.	.	.	2A/	.
=102-	=102-	=102-	=102-	=102-	=102-
!	!	!	!	!LO:TX:b:t=P:problem:♯ below	!
0D	.	.	.	2F#X/	.
.	.	2B-\	.	1G	.
.	.	1A	.	.	.
!	!	!	!	!LO:TX:t=P:problem:kreska pseudotaktowa	!
!	!	!	!	!LO:SIC:v:t=custos G	!
!	!	!	!	!LO:TX:b:t=P:problem:♯ below	!
.	.	.	.	2F#X/	.
!	!	!	!	!LO:LB:g=original	!
=103-	=103-	=103-	=103-	=103-	=103-
!	!	!LO:TX:b:t=P:problem:♯ below	!	!	!
!	!	!LO:N:acc=#	!	!	!
1GG	-men	1Bn	-tris	1G	-tris
2rBB	.	2rc	.	2rF	.
*	*ij	*	*	*	*
1C/	A-	1e\	A-	1G/	A-
=104-	=104-	=104-	=104-	=104-	=104-
.	.	.	.	.	.
!LO:TX:b:t=P:problem:♯ below	!	!	!	!	!
!LO:N:acc=#	!	!	!	!LO:TX:t=P:problem:kreska pseudotaktowa	!
2BBn/	.	2d\	.	2G/	-men
*	*	*	*	*	*ij
0C	.	0c	.	0G	A-
=105-	=105-	=105-	=105-	=105-	=105-
.	.	.	.	.	.
!	!	!LO:TX:b:t=P:problem:♯ below	!	!	!
!	!	!LO:N:acc=#	!	!	!
1GGl;;	-men	1Bnl;;	-men.	1Gl;;	-men
*	*Xij	*	*	*	*Xij
==	==	==	==	==	==
*-	*-	*-	*-	*-	*-
!!!system-decoration: [g1]
!!!RDF**kern: > = above
!!!RDF**kern: < = below
!!!RDF**kern: l = terminal long
!!!ENC: Andrzej Kubiczek
!!!END: 2021-03-22
!!!ENC: Andrzej Borzym
!!!END: 2021-03-07
